X: 36357
T: Sean McDonnell's
R: reel
M: 4/4
K: Cmajor
CE ~E2 FGAc|BGGF DEFD|CE ~E2 FGAc|BGFD EC C2|
CE ~E2 FGAc|BGGF DEFD|CE ~E2 FGAc|BGFD EC C2|
cG ~G2 cedc|BGGF DEFD|CE ~E2 FGAc|BGdG BcdB|
cG ~G2 cedc|BGGF DEFD|CE ~E2 FGAc|BGFD EC C2|

